assets/icons/trash.svg

<svg id="Layer_1" enable-background="new 0 0 512 512" height="512" viewBox="0 0 512 512" width="512" xmlns="http://www.w3.org/2000/svg"><g><path d="m424 64h-88v-16c0-26.467-21.533-48-48-48h-64c-26.467 0-48 21.533-48 48v16h-88c-22.056 0-40 17.944-40 40v56c0 8.836 7.164 16 16 16h8.744l13.823 290.283c1.221 25.636 22.281 45.717 47.945 45.717h242.976c25.665 0 46.725-20.081 47.945-45.717l13.823-290.283h8.744c8.836 0 16-7.164 16-16v-56c0-22.056-17.944-40-40-40zm-216-16c0-8.822 7.178-16 16-16h64c8.822 0 16 7.178 16 16v16h-96zm-128 56c0-4.411 3.589-8 8-8h336c4.411 0 8 3.589 8 8v40c-4.931 0-331.567 0-352 0zm313.469 360.761c-.407 8.545-7.427 15.239-15.981 15.239h-242.976c-8.555 0-15.575-6.694-15.981-15.239l-13.751-288.761h302.44z"/><path d="m256 448c8.836 0 16-7.164 16-16v-208c0-8.836-7.164-16-16-16s-16 7.164-16 16v208c0 8.836 7.163 16 16 16z"/><path d="m336 448c8.836 0 16-7.164 16-16v-208c0-8.836-7.164-16-16-16s-16 7.164-16 16v208c0 8.836 7.163 16 16 16z"/><path d="m176 448c8.836 0 16-7.164 16-16v-208c0-8.836-7.164-16-16-16s-16 7.164-16 16v208c0 8.836 7.163 16 16 16z"/></g></svg>

<svg width="512" height="512" viewBox="0 0 512 512" fill="none" xmlns="http://www.w3.org/2000/svg">
<path d="M424 64H336V48C336 21.533 314.467 0 288 0H224C197.533 0 176 21.533 176 48V64H88C65.944 64 48 81.944 48 104V160C48 168.836 55.164 176 64 176H72.744L86.567 466.283C87.788 491.919 108.848 512 134.512 512H377.488C403.153 512 424.213 491.919 425.433 466.283L439.256 176H448C456.836 176 464 168.836 464 160V104C464 81.944 446.056 64 424 64ZM208 48C208 39.178 215.178 32 224 32H288C296.822 32 304 39.178 304 48V64H208V48ZM80 104C80 99.589 83.589 96 88 96H424C428.411 96 432 99.589 432 104V144C427.069 144 100.433 144 80 144V104ZM393.469 464.761C393.062 473.306 386.042 480 377.488 480H134.512C125.957 480 118.937 473.306 118.531 464.761L104.78 176H407.22L393.469 464.761Z" fill="black"/>
<path d="M256 448C264.836 448 272 440.836 272 432V224C272 215.164 264.836 208 256 208C247.164 208 240 215.164 240 224V432C240 440.836 247.163 448 256 448Z" fill="black"/>
<path d="M336 448C344.836 448 352 440.836 352 432V224C352 215.164 344.836 208 336 208C327.164 208 320 215.164 320 224V432C320 440.836 327.163 448 336 448Z" fill="black"/>
<path d="M176 448C184.836 448 192 440.836 192 432V224C192 215.164 184.836 208 176 208C167.164 208 160 215.164 160 224V432C160 440.836 167.163 448 176 448Z" fill="black"/>
</svg>
